server/caravan/static/img/steps/4.svg

<svg id="eCFQHE4O8GR1" xmlns="http://www.w3.org/2000/svg" xmlns:xlink="http://www.w3.org/1999/xlink" viewBox="0 60 87 46" shape-rendering="geometricPrecision" text-rendering="geometricPrecision"><defs><linearGradient id="eCFQHE4O8GR6-fill" x1="0" y1="82" x2="35.131" y2="79.2685" spreadMethod="pad" gradientUnits="userSpaceOnUse" gradientTransform="translate(0 0)"><stop id="eCFQHE4O8GR6-fill-0" offset="0%" stop-color="#e41b1b"/><stop id="eCFQHE4O8GR6-fill-1" offset="100%" stop-color="#bd0000"/></linearGradient></defs><path d="M53.358,45.6349c.1629,0,.2956.1318.2956.2937c0,.4865.3972.8809.8871.8809s.887-.3944.887-.8809c0-1.1334-.9286-2.0556-2.0697-2.0556h-3.8437v-1.4682c0-1.1334-.9286-2.0556-2.0697-2.0556h-1.1827c-1.1412,0-2.0697.9222-2.0697,2.0556v1.4682h-2.9567v-3.8174c0-1.1334-.9285-2.0556-2.0697-2.0556h-1.1827c-1.1412,0-2.0697.9222-2.0697,2.0556v3.8174h-3.3452c.2976.1958.9819.8222,1.3381,1.7619h19.4517Zm-7.0961-3.5238c-.163,0-.2957.1318-.2957.2937v1.4682h1.774v-1.4682c0-.1619-.1327-.2937-.2956-.2937h-1.1827Zm-8.2788-2.3492c-.163,0-.2957.1318-.2957.2937v3.8174h1.7741v-3.8174c0-.1619-.1327-.2937-.2957-.2937h-1.1827Z" transform="translate(.691261 22.691261)" clip-rule="evenodd" fill="#939faa" fill-rule="evenodd"/><path d="M86,58.0582v-.3836c0-1.1334-.9285-2.0556-2.0697-2.0556h-8.0395c-.7576,0-1.5039.1957-2.1615.5594-1.5088-1.8356-3.7581-2.9086-6.1791-2.9086-2.5058,0-4.7445,1.1535-6.2091,2.9529v-.8973c0-1.1334-.9285-2.0556-2.0697-2.0556h-5.0264v-4.992c0-.4865-.3972-.881-.887-.881h-19.0064c.1484.3513.4452,1.1954.4452,1.7619h17.6742v10.886c-.2585-.1265-.4981-.293-.7076-.5013L49.111,56.9091c-.8377-.832-1.9515-1.2901-3.136-1.2901h-10.0616c-.2238.3943-.7604,1.2987-1.1166,1.762h11.1782c.7108,0,1.379.2748,1.8816.774l2.6524,2.6343c.7152.7103,1.6318,1.147,2.6218,1.2598.0727.0191.1485.0303.2273.0303.031,0,.0616-.0017.0918-.0047.0648.0028.1298.0047.1951.0047h13.8433c1.0033,0,1.9873-.3428,2.7707-.9652L74.2285,57.96c.47-.3734,1.0604-.579,1.6624-.579h8.0394c.1631,0,.2957.1317.2957.2936v.3836c0,2.0227-.6118,4.0043-1.7769,5.7831h-5.2666c-.49,0-.887.3944-.887.8809s.397.881.887.881h4.1174c-.2921.6397-.4446,1.3349-.4446,2.0555c0,1.9065,1.1186,3.6728,2.8498,4.4996.3214.1535.5209.4542.5209.7861c0,.1619-.1326.2937-.2957.2937h-44.8149c-.4899,0-.887.3944-.887.8809s.3971.881.887.881h44.8149C85.0715,75,86,74.0778,86,72.9432c0-1.014-.5847-1.9231-1.526-2.3727-1.1206-.5353-1.8446-1.6782-1.8446-2.9119c0-.7184.2322-1.3981.6718-1.9657C85.0668,63.4129,86,60.7727,86,58.0582ZM54.245,60.3175h5.3221v-4.9921c0-.1619-.1326-.2937-.2957-.2937h-5.0264v5.2858Zm13.2432,0c.602,0,1.1924-.2057,1.6624-.5791l3.1547-2.5066c-1.1735-1.3899-2.8996-2.2001-4.7551-2.2001-3.1226,0-5.713,2.3014-6.1448,5.2858h6.0828Z" transform="translate(.691261 22.691261)" clip-rule="evenodd" fill="#939faa" fill-rule="evenodd"/><path d="M70.3898,65.6032c.49,0,.887-.3945.887-.881s-.397-.8809-.887-.8809h-37.8216l-.7942,1.7619h38.6158Z" transform="translate(.691261 22.691261)" fill="#939faa"/><path d="M32.5682,71.378l3.0773,2.172c.3994.2819.9532.1888,1.2369-.2078s.1902-.9466-.2092-1.2284l-3.0774-2.172c-.9465-.6681-1.8022-1.4359-2.5572-2.2832L30,69.1434c.771.8221,1.6297,1.5721,2.5682,2.2346Z" transform="translate(.691261 22.691261)" fill="#939faa"/><path d="M16,82c.1991,0,.3875-.0902.5117-.2451l.2268-.2822C21.3054,75.7948,32,62.4976,32,54.967C32,46.1628,24.8224,39,16,39s-16,7.1628-16,15.9669c0,6.6672,8.27743,17.8183,15.4883,26.7879.1243.155.3127.2452.5117.2452Zm0-41.6906c8.0989,0,14.6878,6.5752,14.6878,14.6576c0,6.9243-10.0637,19.5799-14.6874,25.3319C11.5181,74.7136,1.31217,61.7562,1.31217,54.967c0-8.0824,6.589-14.6576,14.68783-14.6576Zm9.7686,14.639c0-5.3751-4.382-9.7482-9.7686-9.7482-5.3861,0-9.7681,4.3731-9.7681,9.7482c0,5.3752,4.382,9.748,9.7681,9.748c5.3866-.0001,9.7686-4.3728,9.7686-9.748ZM16,63.3869c-4.6625,0-8.45594-3.7855-8.45594-8.4386s3.79344-8.4388,8.45594-8.4388c4.6631,0,8.4564,3.7858,8.4564,8.4388s-3.7934,8.4386-8.4564,8.4386Z" transform="translate(.691261 22.691261)" fill="url(#eCFQHE4O8GR6-fill)"/></svg>

<svg xmlns="http://www.w3.org/2000/svg" width="126" height="50" viewBox="0 60 125 1" fill="none">
<path fill-rule="evenodd" clip-rule="evenodd" d="M53.358 45.6349C53.5209 45.6349 53.6536 45.7667 53.6536 45.9286C53.6536 46.4151 54.0508 46.8095 54.5407 46.8095C55.0305 46.8095 55.4277 46.4151 55.4277 45.9286C55.4277 44.7952 54.4991 43.873 53.358 43.873H49.5143V42.4048C49.5143 41.2714 48.5857 40.3492 47.4446 40.3492H46.2619C45.1207 40.3492 44.1922 41.2714 44.1922 42.4048V43.873H41.2355V40.0556C41.2355 38.9222 40.307 38 39.1658 38H37.9831C36.8419 38 35.9134 38.9222 35.9134 40.0556V43.873H32.5682C32.8658 44.0688 33.5501 44.6952 33.9063 45.6349H53.358ZM46.2619 42.1111C46.0989 42.1111 45.9662 42.2429 45.9662 42.4048V43.873H47.7402V42.4048C47.7402 42.2429 47.6075 42.1111 47.4446 42.1111H46.2619ZM37.9831 39.7619C37.8201 39.7619 37.6874 39.8937 37.6874 40.0556V43.873H39.4615V40.0556C39.4615 39.8937 39.3288 39.7619 39.1658 39.7619H37.9831Z" fill="#939FAA"/>
<path fill-rule="evenodd" clip-rule="evenodd" d="M86 58.0582V57.6746C86 56.5412 85.0715 55.619 83.9303 55.619H75.8908C75.1332 55.619 74.3869 55.8147 73.7293 56.1784C72.2205 54.3428 69.9712 53.2698 67.5502 53.2698C65.0444 53.2698 62.8057 54.4233 61.3411 56.2227V55.3254C61.3411 54.192 60.4126 53.2698 59.2714 53.2698H54.245V48.2778C54.245 47.7913 53.8478 47.3968 53.358 47.3968H34.3516C34.5 47.7481 34.7968 48.5922 34.7968 49.1587H52.471V60.0447C52.2125 59.9182 51.9729 59.7517 51.7634 59.5434L49.111 56.9091C48.2733 56.0771 47.1595 55.619 45.975 55.619H35.9134C35.6896 56.0133 35.153 56.9177 34.7968 57.381H45.975C46.6858 57.381 47.354 57.6558 47.8566 58.155L50.509 60.7893C51.2242 61.4996 52.1408 61.9363 53.1308 62.0491C53.2035 62.0682 53.2793 62.0794 53.3581 62.0794C53.3891 62.0794 53.4197 62.0777 53.4499 62.0747C53.5147 62.0775 53.5797 62.0794 53.645 62.0794H67.4883C68.4916 62.0794 69.4756 61.7366 70.259 61.1142L74.2285 57.96C74.6985 57.5866 75.2889 57.381 75.8909 57.381H83.9303C84.0934 57.381 84.226 57.5127 84.226 57.6746V58.0582C84.226 60.0809 83.6142 62.0625 82.4491 63.8413H77.1825C76.6925 63.8413 76.2955 64.2357 76.2955 64.7222C76.2955 65.2087 76.6925 65.6032 77.1825 65.6032H81.2999C81.0078 66.2429 80.8553 66.9381 80.8553 67.6587C80.8553 69.5652 81.9739 71.3315 83.7051 72.1583C84.0265 72.3118 84.226 72.6125 84.226 72.9444C84.226 73.1063 84.0934 73.2381 83.9303 73.2381H39.1154C38.6255 73.2381 38.2284 73.6325 38.2284 74.119C38.2284 74.6056 38.6255 75 39.1154 75H83.9303C85.0715 75 86 74.0778 86 72.9432C86 71.9292 85.4153 71.0201 84.474 70.5705C83.3534 70.0352 82.6294 68.8923 82.6294 67.6586C82.6294 66.9402 82.8616 66.2605 83.3012 65.6929C85.0668 63.4129 86 60.7727 86 58.0582ZM54.245 60.3175H59.5671V55.3254C59.5671 55.1635 59.4345 55.0317 59.2714 55.0317H54.245V60.3175ZM67.4882 60.3175C68.0902 60.3175 68.6806 60.1118 69.1506 59.7384L72.3053 57.2318C71.1318 55.8419 69.4057 55.0317 67.5502 55.0317C64.4276 55.0317 61.8372 57.3331 61.4054 60.3175H67.4882Z" fill="#939FAA"/>
<path d="M70.3898 65.6032C70.8798 65.6032 71.2768 65.2087 71.2768 64.7222C71.2768 64.2357 70.8798 63.8413 70.3898 63.8413H32.5682L31.774 65.6032H70.3898Z" fill="#939FAA"/>
<path d="M32.5682 71.378L35.6455 73.55C36.0449 73.8319 36.5987 73.7388 36.8824 73.3422C37.1661 72.9456 37.0726 72.3956 36.6732 72.1138L33.5958 69.9418C32.6493 69.2737 31.7936 68.5059 31.0386 67.6586L30 69.1434C30.771 69.9655 31.6297 70.7155 32.5682 71.378Z" fill="#939FAA"/>
<path d="M16 82C16.1991 82 16.3875 81.9098 16.5117 81.7549L16.7385 81.4727C21.3054 75.7948 32 62.4976 32 54.967C32 46.1628 24.8224 39 16 39C7.17767 39 0 46.1628 0 54.9669C0 61.6341 8.27743 72.7852 15.4883 81.7548C15.6126 81.9098 15.801 82 16 82ZM16 40.3094C24.0989 40.3094 30.6878 46.8846 30.6878 54.967C30.6878 61.8913 20.6241 74.5469 16.0004 80.2989C11.5181 74.7136 1.31217 61.7562 1.31217 54.967C1.31217 46.8846 7.90117 40.3094 16 40.3094ZM25.7686 54.9484C25.7686 49.5733 21.3866 45.2002 16 45.2002C10.6139 45.2002 6.2319 49.5733 6.2319 54.9484C6.2319 60.3236 10.6139 64.6964 16 64.6964C21.3866 64.6963 25.7686 60.3236 25.7686 54.9484ZM16 63.3869C11.3375 63.3869 7.54406 59.6014 7.54406 54.9483C7.54406 50.2953 11.3375 46.5095 16 46.5095C20.6631 46.5095 24.4564 50.2953 24.4564 54.9483C24.4564 59.6014 20.663 63.3869 16 63.3869Z" fill="url(#paint0_linear_1505_61013)"/>
<defs>
<linearGradient id="paint0_linear_1505_61013" x1="2.38419e-07" y1="82" x2="35.131" y2="79.2685" gradientUnits="userSpaceOnUse">
<stop stop-color="#E41B1B"/>
<stop offset="1" stop-color="#BD0000"/>
</linearGradient>
</defs>
</svg>
